public/assets/icons/google.svg

<svg width="25" height="24" viewBox="0 0 25 24" fill="none" xmlns="http://www.w3.org/2000/svg">
<g clip-path="url(#clip0_1253_10503)">
<path d="M24.266 12.2764C24.266 11.4607 24.1999 10.6406 24.0588 9.83807H12.74V14.4591H19.2217C18.9528 15.9494 18.0885 17.2678 16.823 18.1056V21.1039H20.69C22.9608 19.0139 24.266 15.9274 24.266 12.2764Z" fill="#4285F4"/>
<path d="M12.7401 24.0008C15.9766 24.0008 18.7059 22.9382 20.6945 21.1039L16.8276 18.1055C15.7517 18.8375 14.3627 19.252 12.7445 19.252C9.61388 19.252 6.95946 17.1399 6.00705 14.3003H2.0166V17.3912C4.05371 21.4434 8.2029 24.0008 12.7401 24.0008Z" fill="#34A853"/>
<path d="M6.00253 14.3003C5.49987 12.8099 5.49987 11.1961 6.00253 9.70575V6.61481H2.01649C0.31449 10.0056 0.31449 14.0004 2.01649 17.3912L6.00253 14.3003Z" fill="#FBBC04"/>
<path d="M12.7401 4.74966C14.4509 4.7232 16.1044 5.36697 17.3434 6.54867L20.7695 3.12262C18.6001 1.0855 15.7208 -0.034466 12.7401 0.000808666C8.2029 0.000808666 4.05371 2.55822 2.0166 6.61481L6.00264 9.70575C6.95064 6.86173 9.60947 4.74966 12.7401 4.74966Z" fill="#EA4335"/>
</g>
<defs>
<clipPath id="clip0_1253_10503">
<rect width="24" height="24" fill="white" transform="translate(0.5)"/>
</clipPath>
</defs>
</svg>

<svg width="25" height="24" viewBox="0 0 25 24" fill="none" xmlns="http://www.w3.org/2000/svg"><g clip-path="url(#a)"><path d="M24.266 12.276c0-.815-.066-1.635-.207-2.438H12.74v4.621h6.482a5.55 5.55 0 0 1-2.399 3.647v2.998h3.867c2.27-2.09 3.576-5.177 3.576-8.828" fill="#4285F4"/><path d="M12.74 24c3.237 0 5.966-1.062 7.955-2.896l-3.867-2.998c-1.076.731-2.465 1.146-4.083 1.146-3.131 0-5.786-2.112-6.738-4.952h-3.99v3.091a12 12 0 0 0 10.723 6.61" fill="#34A853"/><path d="M6.003 14.3a7.2 7.2 0 0 1 0-4.594V6.615H2.016a12.01 12.01 0 0 0 0 10.776z" fill="#FBBC04"/><path d="M12.74 4.75a6.52 6.52 0 0 1 4.603 1.799l3.427-3.426A11.53 11.53 0 0 0 12.74 0 12 12 0 0 0 2.017 6.615l3.986 3.09C6.95 6.863 9.609 4.75 12.74 4.75" fill="#EA4335"/></g><defs><clipPath id="a"><path fill="#fff" d="M.5 0h24v24H.5z"/></clipPath></defs></svg>
